images/round-head_icon.svg

<?xml version="1.0" encoding="UTF-8"?>
<svg width="90px" height="90px" viewBox="0 0 90 90" version="1.1" xmlns="http://www.w3.org/2000/svg" xmlns:xlink="http://www.w3.org/1999/xlink">
    <defs>
        <path d="M89.7956762,44.8674621 C89.7765857,21.0483174 71.3128815,1.52255825 47.8944261,0 L41.9959566,0 C18.5653637,1.52334604 0.0946795216,21.068528 0.0946795216,44.9044385 C0.0946795216,68.6737552 18.3529786,88.1762962 41.6810371,89.795691 L47.9720067,89.795691 C71.3066286,88.1771339 89.776574,68.6939271 89.7956762,44.9413217 L89.7956762,44.8674458 L89.7956762,44.8674621 Z M74.0502658,67.4641226 C73.9309934,68.1803043 73.5731761,69.1352103 72.022485,70.5675678 C70.4717641,72.2386585 68.4439834,73.6710219 68.4439834,73.6710219 C62.1219767,78.6842821 54.1299767,81.7877272 45.4223123,81.7877272 L44.9451927,81.7877272 C44.9451927,81.7877272 44.9451927,81.7877272 44.8258904,81.7877272 L44.3487708,81.7877272 C35.6410764,81.7877272 27.6491093,78.6842821 21.3270937,73.6710219 C21.3270937,73.6710219 19.2992831,72.2386585 17.748601,70.5675678 C16.1979159,69.1352103 15.8400718,68.0609422 15.7207814,67.4641226 L15.7207814,66.9866711 L15.7207814,66.7479409 C15.7207814,66.6285787 15.8400718,66.6285787 15.8400718,66.6285787 C16.0786346,66.2704894 16.4364847,65.912397 16.6750475,65.7930319 L32.4204518,58.2731462 C32.778299,58.1537841 33.374691,57.7956977 33.971113,57.3182193 C36.3567708,55.169701 35.8796512,49.9177076 35.8796512,49.9177076 C35.8796512,48.4853322 35.521804,47.6497973 35.1639568,47.1723488 C34.8061096,46.6949003 32.6589967,45.381887 32.6589967,45.381887 C31.3468804,44.3076279 30.8697608,40.9654585 30.8697608,40.9654585 C30.7504585,40.1298937 30.7504585,39.4137209 30.7504585,39.4137209 C30.7504585,38.9362724 30.8697608,38.578186 31.1083355,38.3394618 L31.7047276,37.6232591 C31.9433023,37.3845349 32.0625748,36.6683621 32.0625748,36.6683621 C32.0625748,36.6683621 32.1818771,33.6842791 32.1818771,33.3261927 C32.3011495,26.4030997 37.9074618,20.7930199 44.9451927,20.6736578 C51.8635914,20.7930199 57.589206,26.4030997 57.7084784,33.3261927 C57.7084784,33.6842791 57.8277807,36.6683621 57.8277807,36.6683621 C57.8277807,36.6683621 57.9470532,37.3845349 58.1856279,37.6232591 L58.7820199,38.3394618 C59.0205947,38.578186 59.139897,38.9362724 59.139897,39.4137209 C59.139897,39.4137209 59.139897,40.1298937 59.0205947,40.9654585 C59.0205947,40.9654585 58.5434751,44.3076279 57.2313588,45.381887 C57.2313588,45.381887 55.0842458,46.6949003 54.7263987,47.1723488 C54.3685515,47.6497973 54.0107043,48.4853322 54.0107043,49.9177076 C54.0107043,49.9177076 53.5335847,55.169701 55.9192425,57.3182193 C56.5156645,57.7956977 57.1120565,58.1537841 57.4699037,58.2731462 C57.4699037,58.2731462 73.215299,65.6736698 73.215299,65.7930319 C73.5731761,66.0317651 73.9309934,66.2704894 74.0502658,66.6285787 C74.0502658,66.6285787 74.0502658,66.7479409 74.1695382,66.7479409 L74.1695382,66.9866711 C74.0502658,67.1060362 74.0502658,67.3447605 74.0502658,67.4641226 Z" id="path-1"></path>
    </defs>
    <g id="Pages" stroke="none" stroke-width="1" fill="none" fill-rule="evenodd">
        <g id="Web-Mobile" transform="translate(-32.000000, -9191.000000)">
            <g id="Iconography" transform="translate(15.000000, 8602.000000)">
                <g id="Group-18" transform="translate(2.000000, 109.000000)">
                    <g id="icon" transform="translate(15.000000, 480.000000)">
                        <mask id="mask-2" fill="white">
                            <use xlink:href="#path-1"></use>
                        </mask>
                        <use id="Clip-2" fill="#8394A1" xlink:href="#path-1"></use>
                    </g>
                </g>
            </g>
        </g>
    </g>
</svg>

<svg width="90" height="90" viewBox="0 0 90 90" xmlns="http://www.w3.org/2000/svg" xmlns:xlink="http://www.w3.org/1999/xlink"><defs><path d="M89.796 44.867C89.776 21.048 71.313 1.523 47.894 0h-5.898C18.566 1.523.095 21.069.095 44.904c0 23.77 18.258 43.272 41.586 44.892h6.291c23.335-1.619 41.805-21.102 41.824-44.855v-.074zM74.05 67.464c-.119.716-.477 1.671-2.028 3.104-1.55 1.67-3.578 3.103-3.578 3.103-6.322 5.013-14.314 8.117-23.022 8.117h-1.073c-8.708 0-16.7-3.104-23.022-8.117 0 0-2.028-1.432-3.578-3.103-1.551-1.433-1.909-2.507-2.028-3.104v-.717c0-.118.12-.118.12-.118.238-.359.595-.717.834-.836l15.745-7.52c.358-.12.955-.477 1.551-.955 2.386-2.148 1.909-7.4 1.909-7.4 0-1.433-.358-2.268-.716-2.746-.358-.477-2.505-1.79-2.505-1.79-1.312-1.074-1.79-4.417-1.79-4.417-.119-.835-.119-1.551-.119-1.551 0-.478.12-.836.358-1.075l.597-.716c.238-.238.358-.955.358-.955s.119-2.984.119-3.342c.12-6.923 5.725-12.533 12.763-12.652 6.919.119 12.644 5.73 12.763 12.652 0 .358.12 3.342.12 3.342s.12.717.358.955l.596.716c.239.24.358.597.358 1.075 0 0 0 .716-.12 1.551 0 0-.477 3.343-1.789 4.417 0 0-2.147 1.313-2.505 1.79-.357.478-.715 1.313-.715 2.746 0 0-.477 5.252 1.908 7.4.597.478 1.193.836 1.55.955 0 0 15.746 7.4 15.746 7.52.358.239.716.477.835.836 0 0 0 .119.12.119v.239c-.12.119-.12.358-.12.477z" id="a"/></defs><use fill="#8394A1" xlink:href="#a" fill-rule="evenodd"/></svg>
